src/images/bitcore-logo-horizontal-dark.svg

<?xml version="1.0" encoding="UTF-8" standalone="no"?>
<svg width="160px" height="39px" viewBox="0 0 160 39" version="1.1" xmlns="http://www.w3.org/2000/svg" xmlns:xlink="http://www.w3.org/1999/xlink" xmlns:sketch="http://www.bohemiancoding.com/sketch/ns">
    <!-- Generator: Sketch 3.3.3 (12072) - http://www.bohemiancoding.com/sketch -->
    <title>bitcore-logo-horizontal-dark</title>
    <desc>Created with Sketch.</desc>
    <defs></defs>
    <g id="assets" stroke="none" stroke-width="1" fill="none" fill-rule="evenodd" sketch:type="MSPage">
        <g id="bitcore-logo-horizontal-dark" sketch:type="MSArtboardGroup">
            <path d="M63.9632012,14.4557229 C64.9686517,14.4557229 65.8376156,14.6325301 66.5706997,14.9861446 C67.3034805,15.3394578 67.910997,15.8180723 68.3926426,16.4210843 C68.8742883,17.0240964 69.2303664,17.7313253 69.4605736,18.5424699 C69.6910841,19.3536145 69.806036,20.2271084 69.806036,21.1629518 C69.806036,22.5978916 69.5391291,23.9548193 69.005012,25.2337349 C68.4711982,26.5129518 67.7432703,27.6256024 66.8218348,28.571988 C65.9003994,29.5180723 64.8115405,30.2668675 63.554955,30.8180723 C62.2983694,31.3689759 60.9371441,31.6445783 59.4712793,31.6445783 C59.2826246,31.6445783 58.9529339,31.6394578 58.4816006,31.6289157 C58.0105706,31.6186747 57.4712973,31.571988 56.8637808,31.4885542 C56.2565676,31.4054217 55.6126547,31.2807229 54.932042,31.1144578 C54.2514294,30.9478916 53.6075165,30.7192771 53,30.428012 L58.4345886,7.74849398 L63.3035165,7 L61.356006,15.048494 C61.7748679,14.8611446 62.1937297,14.7156627 62.6125916,14.611747 C63.0314535,14.5078313 63.4815556,14.4557229 63.9632012,14.4557229 L63.9632012,14.4557229 Z M59.8795255,27.8075301 C60.6126096,27.8075301 61.3035345,27.6307229 61.9529069,27.2771084 C62.601976,26.9237952 63.1621772,26.4506024 63.6335105,25.8578313 C64.1045405,25.2650602 64.4763904,24.5942771 64.7487568,23.8457831 C65.0208198,23.096988 65.157003,22.3171687 65.157003,21.5060241 C65.157003,20.5078313 64.9895796,19.7277108 64.6544294,19.1662651 C64.3192793,18.6048193 63.7014505,18.3240964 62.8009429,18.3240964 C62.507952,18.3240964 62.1257898,18.3759036 61.6544565,18.4798193 C61.1831231,18.5840361 60.7591051,18.8024096 60.3820991,19.135241 L58.309021,27.6828313 C58.4345886,27.7036145 58.5443844,27.7243976 58.6387117,27.7451807 C58.733039,27.7659639 58.8325225,27.7816265 58.9371622,27.7918675 C59.0418018,27.8024096 59.1676727,27.8075301 59.3141682,27.8075301 L59.8795255,27.8075301 L59.8795255,27.8075301 Z M75.711958,31.2078313 L71.0626216,31.2078313 L74.9894895,14.7987952 L79.6697628,14.7987952 L75.711958,31.2078313 L75.711958,31.2078313 Z M77.9736907,12.8024096 C77.3243183,12.8024096 76.738033,12.6099398 76.2145315,12.2253012 C75.69103,11.8403614 75.4292793,11.253012 75.4292793,10.4626506 C75.4292793,10.0259036 75.5181471,9.61506024 75.6961862,9.23042169 C75.8742252,8.84578313 76.1095886,8.51295181 76.4028829,8.23222892 C76.6961772,7.95150602 77.0364835,7.72771084 77.4238018,7.56144578 C77.8114234,7.39518072 78.2248258,7.31174699 78.6646156,7.31174699 C79.313988,7.31174699 79.9002733,7.50421687 80.4237748,7.88885542 C80.9472763,8.27379518 81.209027,8.86114458 81.209027,9.65150602 C81.209027,10.088253 81.1201592,10.4990964 80.9421201,10.8837349 C80.7640811,11.2686747 80.5284144,11.6012048 80.2354234,11.8819277 C79.9421291,12.1629518 79.6018228,12.3864458 79.2145045,12.5527108 C78.8268829,12.7192771 78.4134805,12.8024096 77.9736907,12.8024096 L77.9736907,12.8024096 Z M84.4446667,10.7123494 L89.3135946,9.96355422 L88.1200961,14.7987952 L93.3344865,14.7987952 L92.3921231,18.6048193 L87.208973,18.6048193 L85.8268198,24.3448795 C85.7012523,24.8231928 85.6226967,25.2701807 85.5914565,25.6861446 C85.5599129,26.1021084 85.6120811,26.4608434 85.7482643,26.7623494 C85.8844474,27.0641566 86.1201141,27.2978916 86.4552643,27.4644578 C86.7901111,27.6307229 87.2508288,27.7138554 87.8374174,27.7138554 C88.339991,27.7138554 88.8267928,27.6671687 89.2981261,27.573494 C89.7691562,27.4801205 90.2456456,27.35 90.7272913,27.1837349 L91.0727538,30.7400602 C90.4446126,30.9686747 89.764,31.1662651 89.0309159,31.3328313 C88.2981351,31.4990964 87.4288679,31.5822289 86.4237207,31.5822289 C84.9787838,31.5822289 83.8583814,31.3689759 83.0625135,30.9427711 C82.2666456,30.5162651 81.7012883,29.9340361 81.3661381,29.1957831 C81.0312913,28.4575301 80.8844925,27.6099398 80.9263483,26.6533133 C80.9682042,25.6966867 81.115003,24.6879518 81.3661381,23.6274096 L84.4446667,10.7123494 L84.4446667,10.7123494 Z M93.4915976,24.6569277 C93.4915976,23.2424699 93.7221081,21.9114458 94.1828258,20.6635542 C94.6435435,19.4159639 95.3032282,18.3240964 96.1618799,17.388253 C97.0205315,16.4524096 98.0623784,15.7138554 99.2874204,15.1731928 C100.512462,14.6325301 101.879147,14.3620482 103.386868,14.3620482 C104.329231,14.3620482 105.172111,14.4506024 105.915508,14.6274096 C106.659207,14.8042169 107.33436,15.0379518 107.941877,15.3292169 L106.339829,18.9478916 C105.920967,18.7816265 105.486333,18.6307229 105.036231,18.4954819 C104.585826,18.3605422 104.03624,18.2927711 103.386868,18.2927711 C101.816363,18.2927711 100.580706,18.8177711 99.6801982,19.8680723 C98.7796907,20.9183735 98.3292853,22.3481928 98.3292853,24.1575301 C98.3292853,25.2183735 98.5597958,26.0762048 99.0205135,26.7313253 C99.4812312,27.3864458 100.329267,27.7138554 101.564925,27.7138554 C102.172138,27.7138554 102.758727,27.651506 103.324084,27.5268072 C103.889441,27.4021084 104.392015,27.2460843 104.831805,27.0587349 L105.177267,30.7710843 C104.590982,31 103.947069,31.2027108 103.245529,31.3795181 C102.543988,31.5563253 101.690492,31.6445783 100.685345,31.6445783 C99.3869039,31.6445783 98.2874294,31.4575301 97.3869219,31.0831325 C96.4864144,30.7087349 95.743018,30.2045181 95.1567327,29.5701807 C94.5701441,28.9358434 94.1461261,28.1921687 93.8843754,27.3394578 C93.6226246,26.4870482 93.4915976,25.5927711 93.4915976,24.6569277 L93.4915976,24.6569277 Z M114.318526,31.6445783 C113.208739,31.6445783 112.245447,31.4783133 111.428652,31.1454819 C110.611856,30.8126506 109.936399,30.3448795 109.402586,29.7415663 C108.868468,29.1385542 108.465378,28.4262048 108.193012,27.6048193 C107.920949,26.7834337 107.784766,25.873494 107.784766,24.875 C107.784766,23.6274096 107.988889,22.3795181 108.397438,21.1316265 C108.805685,19.8837349 109.407742,18.7608434 110.20361,17.7623494 C110.999477,16.7641566 111.973081,15.9478916 113.125027,15.3135542 C114.27667,14.6792169 115.596039,14.3620482 117.083135,14.3620482 C118.171994,14.3620482 119.130129,14.5286145 119.957237,14.8611446 C120.784649,15.1939759 121.465261,15.6620482 121.999075,16.2650602 C122.533192,16.8680723 122.936282,17.5804217 123.208649,18.4021084 C123.480712,19.223494 123.616895,20.1334337 123.616895,21.1316265 C123.616895,22.3795181 123.417928,23.6274096 123.019994,24.875 C122.622363,26.1228916 122.035775,27.2460843 121.260835,28.2442771 C120.486198,29.2424699 119.517447,30.0587349 118.355189,30.6930723 C117.192931,31.3274096 115.847477,31.6445783 114.318526,31.6445783 L114.318526,31.6445783 Z M116.643345,18.2927711 C115.952117,18.2927711 115.344904,18.4903614 114.821402,18.8855422 C114.297598,19.2807229 113.858111,19.7798193 113.502033,20.3828313 C113.145955,20.9861446 112.879048,21.6463855 112.701009,22.3638554 C112.52297,23.0813253 112.433799,23.7623494 112.433799,24.4072289 C112.433799,25.4677711 112.601526,26.2840361 112.936372,26.8560241 C113.271523,27.428012 113.878736,27.7138554 114.758315,27.7138554 C115.449544,27.7138554 116.056757,27.5162651 116.580258,27.1213855 C117.104063,26.7262048 117.543853,26.2271084 117.899628,25.6237952 C118.255706,25.0207831 118.522916,24.3605422 118.700652,23.6427711 C118.878691,22.9253012 118.967862,22.2442771 118.967862,21.5996988 C118.967862,20.5388554 118.800135,19.7225904 118.465288,19.1506024 C118.130138,18.5786145 117.522925,18.2927711 116.643345,18.2927711 L116.643345,18.2927711 Z M137.501514,18.7918675 C137.082652,18.6879518 136.669249,18.5891566 136.2607,18.4954819 C135.852453,18.4021084 135.250396,18.3551205 134.454529,18.3551205 C134.161234,18.3551205 133.8367,18.3813253 133.480622,18.4331325 C133.124544,18.485241 132.831553,18.5424699 132.601042,18.6048193 L129.554057,31.2078313 L124.87348,31.2078313 L128.642934,15.6722892 C129.543745,15.3813253 130.554048,15.1057229 131.67445,14.8457831 C132.794853,14.5858434 134.056595,14.4557229 135.459676,14.4557229 C135.983177,14.4557229 136.564306,14.5024096 137.203063,14.5960843 C137.84182,14.689759 138.402021,14.8403614 138.883667,15.048494 L137.501514,18.7918675 L137.501514,18.7918675 Z M138.569748,24.7816265 C138.569748,23.4506024 138.805111,22.1611446 139.276444,20.913253 C139.747778,19.6653614 140.412619,18.5581325 141.27127,17.5909639 C142.129922,16.6237952 143.171769,15.8439759 144.396811,15.2512048 C145.621853,14.6584337 146.977922,14.3620482 148.464715,14.3620482 C149.197799,14.3620482 149.878411,14.4662651 150.506553,14.6740964 C151.134997,14.8819277 151.684583,15.1837349 152.155916,15.5786145 C152.626946,15.9737952 152.99364,16.4575301 153.25539,17.0295181 C153.517141,17.6012048 153.648168,18.2512048 153.648168,18.9792169 C153.648168,20.1436747 153.386114,21.1316265 152.862613,21.9427711 C152.339111,22.7539157 151.611486,23.4141566 150.679435,23.9237952 C149.747384,24.4331325 148.642754,24.8024096 147.36524,25.0310241 C146.08803,25.2599398 144.695261,25.3743976 143.187237,25.3743976 C143.334036,26.2478916 143.653414,26.8665663 144.145372,27.2304217 C144.637634,27.5942771 145.41773,27.776506 146.485661,27.776506 C147.155961,27.776506 147.836574,27.7192771 148.527802,27.6048193 C149.218727,27.4903614 149.868099,27.3186747 150.475312,27.0900602 L150.820775,30.7400602 C150.234489,30.9686747 149.485634,31.1768072 148.574814,31.3638554 C147.663691,31.5512048 146.674315,31.6445783 145.606081,31.6445783 C144.30764,31.6445783 143.213625,31.4626506 142.323429,31.0987952 C141.433538,30.7346386 140.711069,30.2409639 140.156024,29.6168675 C139.600979,28.9930723 139.197889,28.2650602 138.946754,27.4331325 C138.695315,26.6012048 138.569748,25.7174699 138.569748,24.7816265 L138.569748,24.7816265 Z M147.711006,18.0433735 C146.642772,18.0433735 145.705565,18.4228916 144.899384,19.1819277 C144.093204,19.9409639 143.564243,20.9445783 143.313108,22.1921687 C144.61155,22.1506024 145.658553,22.0415663 146.45442,21.864759 C147.250288,21.6879518 147.868117,21.4746988 148.307604,21.2253012 C148.747393,20.9756024 149.040688,20.7054217 149.187486,20.4141566 C149.333982,20.1228916 149.407381,19.8319277 149.407381,19.5406627 C149.407381,18.5424699 148.841721,18.0433735 147.711006,18.0433735 L147.711006,18.0433735 Z" id="Imported-Layers-Copy-17" fill="#4A4A4A" sketch:type="MSShapeGroup"></path>
            <g id="Imported-Layers-Copy-18" sketch:type="MSLayerGroup" fill="#F9AB3D">
                <path d="M27.4713886,24.6905012 L39.6122318,32.6773846 C37.9578285,12.9512476 25.3932103,3.16454066 21.1740394,0.41463761 L21.1740394,14.4678232 C23.0681985,15.8760719 26.4221253,19.0992388 27.4713886,24.6905012" id="Fill-1" sketch:type="MSShapeGroup"></path>
                <path d="M0.0684533625,32.4696102 L12.232299,24.5590883 C12.7188883,22.0569163 14.1839641,18.0843408 18.5199164,14.5921326 L18.5199164,0.511421412 C2.27668369,12.6102845 0.271051418,27.6215409 0.0684533625,32.4696102" id="Fill-2" sketch:type="MSShapeGroup"></path>
                <path d="M12.7905496,27.3702582 L1.52114335,34.6983014 C19.5567938,42.3273512 33.5971044,37.0868191 38.1462712,34.8989724 L26.8892509,27.4927918 C24.8783104,28.3869321 19.5629867,30.0961873 12.7905496,27.3702582" id="Fill-3" sketch:type="MSShapeGroup"></path>
            </g>
        </g>
    </g>
</svg>

<svg width="160" height="39" viewBox="0 0 160 39" xmlns="http://www.w3.org/2000/svg"><title>bitcore-logo-horizontal-dark</title><g fill="none" fill-rule="evenodd"><path d="M63.963 14.456c1.006 0 1.875.177 2.608.53.734.353 1.34.832 1.824 1.435.48.605.837 1.31 1.068 2.123.23.812.346 1.685.346 2.62 0 1.436-.267 2.793-.8 4.072-.535 1.28-1.263 2.392-2.184 3.338-.922.946-2.01 1.695-3.267 2.246-1.257.55-2.618.826-4.084.826-.187 0-.517-.006-.988-.016-.47-.01-1.01-.058-1.618-.14-.607-.085-1.25-.21-1.932-.376-.68-.166-1.324-.395-1.932-.686l5.435-22.68L63.305 7l-1.95 8.048c.42-.187.84-.332 1.258-.436.418-.104.87-.156 1.35-.156zM59.88 27.808c.733 0 1.424-.177 2.073-.53.65-.354 1.21-.827 1.68-1.42.472-.593.843-1.264 1.116-2.012.27-.75.406-1.53.406-2.34 0-.998-.167-1.778-.503-2.34-.335-.56-.953-.842-1.853-.842-.292 0-.674.052-1.146.156-.47.104-.895.322-1.272.655l-2.073 8.548c.124.02.233.04.33.062.092.02.192.037.296.047.105.01.23.016.377.016h.566zm15.832 3.4h-4.65l3.927-16.41h4.68l-3.96 16.41zm2.262-18.406c-.65 0-1.236-.192-1.76-.577-.523-.385-.785-.972-.785-1.762 0-.437.087-.848.265-1.233.178-.384.414-.717.707-.998.293-.28.633-.504 1.02-.67.388-.167.802-.25 1.242-.25.65 0 1.235.192 1.76.577.522.383.784.97.784 1.76 0 .437-.09.848-.268 1.233-.178.385-.414.717-.707.998-.293.28-.633.505-1.02.67-.388.168-.802.25-1.24.25zm6.47-2.09l4.87-.748L88.12 14.8h5.214l-.942 3.805H87.21l-1.383 5.74c-.126.478-.204.925-.236 1.34-.03.417.023.776.16 1.077.135.302.37.536.706.702.335.167.796.25 1.382.25.503 0 .99-.047 1.46-.14.472-.094.95-.224 1.43-.39l.346 3.556c-.628.23-1.31.426-2.042.593-.732.166-1.6.25-2.606.25-1.445 0-2.566-.214-3.36-.64-.797-.427-1.363-1.01-1.698-1.747-.335-.738-.482-1.586-.44-2.543.042-.956.19-1.965.44-3.026l3.08-12.915zm9.048 13.945c0-1.415.23-2.746.69-3.993.462-1.248 1.12-2.34 1.98-3.276.86-.936 1.9-1.674 3.125-2.215 1.225-.54 2.592-.81 4.1-.81.942 0 1.785.088 2.53.264.742.177 1.417.41 2.025.702l-1.602 3.617c-.42-.166-.854-.317-1.304-.453-.45-.134-1-.202-1.65-.202-1.57 0-2.805.525-3.706 1.575-.9 1.05-1.35 2.48-1.35 4.29 0 1.06.23 1.918.69 2.573.46.656 1.31.984 2.545.984.607 0 1.194-.062 1.76-.187.564-.125 1.067-.28 1.507-.468l.345 3.71c-.586.23-1.23.432-1.93.61-.703.175-1.557.264-2.562.264-1.298 0-2.398-.187-3.298-.562-.9-.374-1.644-.878-2.23-1.513-.587-.635-1.01-1.38-1.273-2.23-.26-.854-.392-1.748-.392-2.684zm20.827 6.988c-1.11 0-2.076-.167-2.89-.5-.82-.332-1.495-.8-2.028-1.403-.535-.603-.938-1.316-1.21-2.137-.272-.822-.408-1.732-.408-2.73 0-1.248.204-2.495.612-3.743.41-1.248 1.01-2.37 1.807-3.37.795-.998 1.77-1.814 2.92-2.448 1.153-.635 2.472-.952 3.96-.952 1.088 0 2.046.167 2.873.5.828.332 1.508.8 2.042 1.403.533.603.936 1.315 1.21 2.137.27.82.407 1.73.407 2.73 0 1.248-.2 2.495-.597 3.743-.398 1.248-.984 2.37-1.76 3.37-.774.997-1.743 1.814-2.905 2.448-1.162.634-2.508.952-4.036.952zm2.322-13.352c-.69 0-1.298.197-1.822.593-.522.395-.962.894-1.318 1.497-.356.603-.623 1.263-.8 1.98-.18.718-.268 1.4-.268 2.044 0 1.06.168 1.877.502 2.45.336.57.943.857 1.822.857.692 0 1.3-.198 1.822-.593.524-.393.964-.892 1.32-1.495.356-.603.623-1.263.8-1.98.18-.72.268-1.4.268-2.044 0-1.06-.168-1.876-.503-2.45-.335-.57-.942-.856-1.822-.856zm20.86.5c-.42-.105-.834-.204-1.242-.298-.408-.093-1.01-.14-1.805-.14-.294 0-.618.026-.974.078-.354.052-.647.11-.88.172l-3.045 12.603h-4.68l3.77-15.536c.9-.29 1.91-.566 3.03-.826 1.12-.26 2.383-.39 3.786-.39.524 0 1.105.046 1.744.14.64.094 1.2.244 1.68.452l-1.38 3.744zm1.067 5.99c0-1.332.234-2.622.705-3.87.472-1.248 1.137-2.355 1.995-3.322.86-.965 1.902-1.745 3.127-2.34 1.225-.59 2.58-.887 4.068-.887.733 0 1.413.104 2.042.312.628.208 1.178.51 1.65.905.47.394.837.878 1.098 1.45.262.57.393 1.22.393 1.95 0 1.164-.262 2.152-.785 2.963-.524.81-1.252 1.47-2.184 1.98-.934.51-2.038.88-3.316 1.108-1.277.23-2.67.345-4.178.345.147.874.466 1.493.958 1.856.493.365 1.273.548 2.34.548.67 0 1.352-.058 2.043-.172.69-.115 1.34-.286 1.947-.515l.346 3.65c-.586.23-1.334.438-2.245.625-.91.187-1.9.28-2.97.28-1.297 0-2.39-.18-3.282-.545-.89-.365-1.612-.86-2.167-1.483-.555-.624-.958-1.352-1.21-2.184-.25-.832-.376-1.716-.376-2.65zm9.14-6.74c-1.068 0-2.005.38-2.81 1.14-.808.758-1.337 1.762-1.588 3.01 1.3-.042 2.346-.15 3.14-.328.797-.177 1.415-.39 1.855-.64.44-.25.733-.52.88-.81.146-.292.22-.583.22-.874 0-.997-.566-1.496-1.697-1.496z" fill="#4A4A4A"/><path d="M27.47 24.69l12.142 7.987C37.958 12.95 25.392 3.165 21.174.415v14.053c1.894 1.408 5.248 4.63 6.297 10.223M.07 32.47l12.164-7.91c.487-2.503 1.952-6.476 6.288-9.968V.512C2.277 12.61.27 27.62.068 32.47m12.722-5.1L1.52 34.698c18.037 7.63 32.077 2.39 36.626.2L26.89 27.494c-2.012.894-7.327 2.603-14.1-.123" fill="#F9AB3D"/></g></svg>
